svg/printer_pos_star.svg

<svg xmlns="http://www.w3.org/2000/svg" viewBox="0 0 24 24"><path d="M17 9H7V4h10zm2 4c-3.31 0-6 2.69-6 6H4v-7a2 2 0 0 1 2-2h12a2 2 0 0 1 2 2v1.09c-.33-.05-.66-.09-1-.09m-9-1H6v2h4zm13 5.89-2.89-.25L19 15l-1.13 2.64-2.87.25 2.18 1.88-.68 2.81 2.5-1.49 2.45 1.49-.65-2.81z"/></svg>

<svg xmlns="http://www.w3.org/2000/svg" id="mdi-printer-pos-star" viewBox="0 0 24 24"><path d="M17 9H7V4H17V9M19 13C15.69 13 13 15.69 13 19H4V12C4 10.9 4.89 10 6 10H18C19.11 10 20 10.9 20 12V13.09C19.67 13.04 19.34 13 19 13M10 12H6V14H10V12M23 17.89L20.11 17.64L19 15L17.87 17.64L15 17.89L17.18 19.77L16.5 22.58L19 21.09L21.45 22.58L20.8 19.77L23 17.89Z" /></svg>
